X:1
T:Jesus Is Pleading
T:Jesus Is Pleading
T:Walter Stillman Martin
T:F. F. Leonard, 1905
T:Public Domain Courtesy of the Cyber Hymnal™
T:Public Domain Courtesy of the Cyber Hymnal™
C:Walter Stillman Martin
Z:Public Domain
Z:Courtesy of the Cyber Hymnal™
%%score ( 1 2 ) ( 3 4 )
L:1/8
Q:1/4=85
M:6/8
K:G
V:1 treble 
V:2 treble 
V:3 bass 
V:4 bass 
V:1
 [DB][DB][DB] [DB][CA][B,G] | B,[B,D][B,G] [CF]3 | [Fc][Ec][Dc] [Fc]2 [Fc] | [Fc][FA][Fd] [GB]3 | %4
w: 1.~Je- sus is plead- ing, oh,|list to His voice;|Plead- ing with you to|make Him your choice;|
w: 2.~Je- sus is wait- ing this|mo- ment for you;|He is a friend al-|might- y and true;|
w: 3.~Bro- ther, has Je- sus not|spo- ken be- fore?|Has He not oft- en|knocked at your door?|
w: 4.~Now while we’re pray- ing, and|while all is still,|Will you not yield to|Je- sus your will?|
 [DB][DB][DB] [DB][CA][B,G] | B,[B,D][D=F] [CE]2 [EG] | [EG][DF][CE] [B,D][EG][Ac] | %7
w: Seek- ing His love to your|heart to make known; Oh,|will you ac- cept Him? Oh,|
w: Wait- ing to hear you say,|“Mas- ter, come in,” He’s|wait- ing to cleanse you from|
w: Do not re- fuse Him, but|give Him His place, Ac-|cept of His love, of His|
w: List, He is plead- ing, oh,|is it in vain That|He has been call- ing a-|
 [GB][DG][FA] [DG]3 ||"^Refrain" d4 [FA][FB][FB] | G6 | [DG][DF][DG] [Fd]2 [FA] | %11
w: will you come home?||||
w: all of your sin.|Je- sus says, “Come”;||Give Him your bur- dens,|
w: truth and His grace.||||
w: gain and a- gain?||||
 [FA][DG][FA] [GB]3 | d4 [FA][FB] | G3- [DG]2 !fermata![Ge] | [Gd]<[GB][B,G] ([CA]>[B,G])[CA] | %15
w: ||||
w: you shall be free;|Je- sus says,|“Come, O, wea-|* ry one, come * to|
w: ||||
w: ||||
 [B,G]6 |] %16
w: |
w: Me.”|
w: |
w: |
V:2
 x6 | B, x5 | x6 | x6 | x6 | B, x5 | x6 | x6 || F F F x4 | (DDE D3) | x6 | x6 | (FFF F) x2 | %13
 DDE x3 | x6 | x6 |] %16
V:3
 [G,,G,][G,,G,][G,,G,] [G,,G,][G,,G,][G,,G,] | [G,,D,][G,,D,][G,,D,] [A,,D,]3 | %2
w: ~ ~ ~ ~ ~ ~|~ ~ ~ ~|
 [D,A,][D,G,][D,F,] [D,A,]2 [D,A,] | [D,A,][D,D][D,D] [G,D]3 | %4
w: ~ ~ ~ ~ ~|~ ~ ~ ~|
 [G,,G,][G,,G,][G,,G,] [G,,G,][G,,G,][G,,G,] | [G,,G,][G,,G,][G,,G,] [C,G,]2 [C,C] | %6
w: ~ ~ ~ ~ ~ ~|~ ~ ~ ~ ~|
 [C,C][C,C][C,G,] [G,,G,][E,B,][A,,E] | [D,D][D,B,][D,C] [G,B,]3 || %8
w: ~ ~ ~ ~ ~ ~|~ ~ ~ ~|
 [D,A,][D,A,][D,A,] [D,A,][D,C][D,D] x | [G,B,][G,B,][G,C] [G,B,]3 | %10
w: Je- sus in- vites you, says,|“Come un- to Me”;|
 [G,B,][A,C][G,B,] [D,A,]2 [D,C] | [D,C][D,B,][D,C] [G,D]3 | [D,A,][D,A,][D,A,] [D,A,][D,C][D,D] | %13
w: ~ ~ ~ ~ ~|~ ~ ~ ~|Je- sus in- vites you, says,|
 [G,B,][G,B,][G,C] [G,B,]2 !fermata![^C,^A,] | [D,B,]<[D,D][D,G,] (F,>E,)[D,F,] | [G,,D,]6 |] %16
w: “Come un- to Me”; *|||
V:4
 x6 | x6 | x6 | x6 | x6 | x6 | x6 | x6 || x7 | x6 | x6 | x6 | x6 | x6 | x3 D,2 x | x6 |] %16

